X:1
T:Title
%%score { ( 1 3 5 ) | ( 2 4 ) }
L:1/8
M:4/4
K:Ab
V:1 treble nm="Grand Piano"
V:3 treble 
V:5 treble 
V:2 bass 
V:4 bass 
V:1
 z4 z2[Q:1/4=100] [Ec]2 | c2 B2 E2 G2 | [DB]2 [CA]2 [CA]2 [CE]2 | [DF]2 [FA]2 [FA]2 [DF]2 | %4
[M:3/4] [CE]6 |[M:1/4] [CE]2 |[M:4/4] E2 G2 B2 E2 | [CE]2 [CA]2 [Ec]2 [Ec]2 | %8
 [EB]3 [EB] [Ac]2 [A=d]2 |[M:3/4] [Ge]6 |[M:1/4] e>d |[M:4/4] cccB A2 F2 | A6 z2 | z4 [Ge]4 | %14
 [Ac]6 z2 | [Fc]2 [FB]2 [A,DF]2 [DFB]2 | [DEB]2 [CEA]2 [A,CE]2 [CA]c | [Ee]3 [Fd] [Ec]2 [DEB]2 | %18
[M:3/4] [CEA]6 |] %19
V:2
 z4 z2 [A,,A,]2 | [E,G,E]2 [E,G,D]2 [G,B,D]2 [E,D]2 | [A,,E,]2 [A,,E,]2 [A,,E,]2 [A,,A,]2 | %3
 [D,A,]2 [D,A,]2 [D,A,]2 [D,A,]2 |[M:3/4] [A,,A,]6 |[M:1/4] [A,,A,]2 | %6
[M:4/4] [E,G,D]2 [E,B,D]2 [E,G,D]2 [E,G,D]2 | [A,,A,]2 [A,,A,]2 [A,,A,]2 [A,,A,]2 | %8
 [B,,G,]3 [B,,G,] [B,,F,]2 [B,,B,]2 |[M:3/4] [E,B,]6 |[M:1/4] B,>[K:treble]E | %11
[M:4/4] [A,EA][A,EA][A,EA][A,DE][K:bass] [A,CE]2 [A,D]2 | [A,CE][A,C][A,C][A,C] [A,C]2 [A,CE]2 | %13
 [B,E]2 [G,B,]2 [E,B,]2 z[K:treble] G | A,A,A,A,[K:bass] A,2 [A,E]2 | [D,A,]2 [D,A,]2 D,2 D,2 | %16
 z4 z2 A,2 | [C,A,]3 [D,A,] [E,A,]2 E,2 |[M:3/4] A,,6 |] %19
V:3
 x8 | x8 | x8 | x8 |[M:3/4] x6 |[M:1/4] x2 |[M:4/4] x8 | x8 | x8 |[M:3/4] x6 |[M:1/4] G2 | %11
[M:4/4] x8 | z EEE E2 A2 | B2 E2 z2 z d | EEEE E2 c2 | x8 | x8 | x8 |[M:3/4] x6 |] %19
V:4
 x8 | x8 | x8 | x8 |[M:3/4] x6 |[M:1/4] x2 |[M:4/4] x8 | x8 | x8 |[M:3/4] x6 | %10
[M:1/4] E,2[K:treble] |[M:4/4] x4[K:bass] x4 | x8 | z4 z2 E,2[K:treble] | x4[K:bass] x4 | x8 | %16
 A,,2 A,,2 A,,2 z E | x8 |[M:3/4] x6 |] %19
V:5
 x8 | x8 | x8 | x8 |[M:3/4] x6 |[M:1/4] x2 |[M:4/4] x8 | x8 | x8 |[M:3/4] x6 |[M:1/4] x2 | %11
[M:4/4] x8 | x8 | z4 z2 E2 | x8 | x8 | x8 | x8 |[M:3/4] x6 |] %19

